!!!!SEGMENT: pl-sa--291-a-vii-51--003_lechleitner-ferdinand-simon--psalmodia-nisi-dominus.krn
!!!cenid: 17xx:428
!!!COM: Lechleitner, Ferdinand Simon
!!!COM-rismid: pe30001903
!!!CDT: ~1700-~1800
!!!CNT:
!!!OPR: Psalmodia
!!!OTL: Nisi Dominus
!!!OMV: 003
!!!PDT: 1731
!!!AGN: Sacred
!!!SMS-siglum: PL-SA
!!!SMS-shelfmark: 291/A VII 51
!!!SMS-shelfwork: 001-003 M
!!!NIFC-rismid: 1001077288
!!!URL-scan: http://bc.bdsandomierz.pl/dlibra/publication/1787/edition/1768/content
!!!ONB-nifc: UWAGA: części Psalmodii: Laudate Dominum, Laetatus, Nisi Dominus, Lauda Jerusalem
**kern	**fba	**kern	**kern	**kern	**text	**kern	**text	**kern	**text	**kern	**text
*part7	*	*part6	*part5	*part4	*part4	*part3	*part3	*part2	*part2	*part1	*part1
*	*	*group2	*group2	*group1	*	*group1	*	*group1	*	*group1	*
*staff7	*	*staff6	*staff5	*staff4	*staff4	*staff3	*staff3	*staff2	*staff2	*staff1	*staff1
*Iempty	*	*Ivioln	*Ivioln	*Iempty	*	*Itenor	*	*Ialto	*	*Ivox	*
*I"Baſso Conti.	*	*I"Violino 2do	*I"Violino 1mo	*I"Baſso	*	*I"Tenore	*	*I"Alto	*	*I"Canto	*
*I'b.c.	*	*I'vl 2	*I'vl 1	*I'B	*	*I'T	*	*I'A	*	*I'C	*
*clefF4	*	*clefG2	*clefG2	*clefF4	*	*clefC4	*	*clefC3	*	*clefC1	*
*Trd0c0	*	*	*	*	*	*	*	*	*	*	*
*k[f#]	*	*k[f#]	*k[f#]	*k[f#]	*	*k[f#]	*	*k[f#]	*	*k[f#]	*
*e:	*	*e:	*e:	*e:	*	*e:	*	*e:	*	*e:	*
*M4/4	*	*M4/4	*M4/4	*M4/4	*	*M4/4	*	*M4/4	*	*M4/4	*
*met(c)	*	*met(C.)	*met(C.)	*met(C.)	*	*met(C.)	*	*met(C.)	*	*met(C.)	*
=1	=1	=1	=1	=1	=1	=1	=1	=1	=1	=1	=1
!	!	!LO:TX:a:t=P:problem:krzyżyki f# ff# jeden pod drugim	!LO:TX:a:t=P:problem:krzyżyki f# ff# jeden pod drugim	!	!	!LO:TX:a:t=P:problem:krzyżyki f# ff# jeden pod drugim	!	!	!	!	!
!	!	!LO:TX:a:t=P:problem:w taktach 1-17 zamazane pauzy	!	!	!	!	!	!	!	!	!
!LO:TX:b:t=Nisi D(omi)nus	!	!LO:TX:b:t=Nisi D(omi)nus	!LO:TX:b:t=Niſi D(omi)nus	!LO:TX:b:t=Niſi D(omi)nus	!	!	!	!LO:TX:b:t=Niſi	!	!	!
8E\L	.	00r	00r	00r	.	0r	.	00r	.	4r	.
8F#\	.	.	.	.	.	.	.	.	.	.	.
8G\	.	.	.	.	.	.	.	.	.	8b\	Ni-
8D#X\J	.	.	.	.	.	.	.	.	.	8b\	-si
!LO:TX:a:t=P:problem:mixed beam	!	!	!	!	!	!	!	!	!	!	!
8E\L	.	.	.	.	.	.	.	.	.	8.g/	Do-
8EE/J	.	.	.	.	.	.	.	.	.	.	.
.	.	.	.	.	.	.	.	.	.	16f#/	-mi-
8r	.	.	.	.	.	.	.	.	.	8e/	-nus
16E\LL	.	.	.	.	.	.	.	.	.	8b\	ae-
16F#\JJ	.	.	.	.	.	.	.	.	.	.	.
=2	=2	=2	=2	=2	=2	=2	=2	=2	=2	=2	=2
8G\L	6	.	.	.	.	.	.	.	.	8ee\	-di-
8F#\	6\	.	.	.	.	.	.	.	.	8dd#X\	-fi-
8G\	6	.	.	.	.	.	.	.	.	8ee\	-ca-
8A\J	6	.	.	.	.	.	.	.	.	16ff#\	-ve-
.	5	.	.	.	.	.	.	.	.	16gg\	-rit
8B\L	#	.	.	.	.	.	.	.	.	8dd#X\	do-
16B\L	.	.	.	.	.	.	.	.	.	8dd#\	-mum
16c\JJ	.	.	.	.	.	.	.	.	.	.	.
8B\L	.	.	.	.	.	.	.	.	.	8r	.
8G\J	6	.	.	.	.	.	.	.	.	8ee\	in
=3	=3	=3	=3	=3	=3	=3-	=3	=3	=3	=3	=3
8A\L	3	.	.	.	.	2rd	.	.	.	8cc\	Va-
8G\	3	.	.	.	.	.	.	.	.	16b\	-num
.	.	.	.	.	.	.	.	.	.	16cc\	la-
8F#\	.	.	.	.	.	.	.	.	.	8a\	-bo-
!	!	!	!	!	!	!	!	!	!	!LO:LB:g=original	!
!	!	!	!	!	!	!	!	!	!	!LO:TX:a:t=P:problem:w tej linijce omyłkowo dwa krzyZyki c# f#	!
8D\J	.	.	.	.	.	.	.	.	.	8dd\	-ra-
8G\L	.	.	.	.	.	4.d\	Ni-	.	.	8b\	-ve-
16G\L	.	.	.	.	.	.	.	.	.	8g/	-runt
16A\JJ	.	.	.	.	.	.	.	.	.	.	.
8B\L	.	.	.	.	.	.	.	.	.	8r	.
8G\J	.	.	.	.	.	8d\	-si	.	.	16dd\	qui
.	.	.	.	.	.	.	.	.	.	16b\	ae-
=4	=4	=4	=4	=4	=4	=4	=4	=4	=4	=4	=4
!LO:TX:a:t=P:problem:mixed beam	!	!	!	!	!	!	!	!	!	!	!
8c\L	5	.	.	.	.	8c\	Do-	.	.	8ee\	-di-
8A\	.	.	.	.	.	16B\	-mi-	.	.	16gg\	-fi
.	.	.	.	.	.	16c\	-nus	.	.	16b\	-cant
8d\	4	.	.	.	.	8A\	Cus-	.	.	8.a\L	e-
8D/J	3	.	.	.	.	8d\	-to-	.	.	.	.
.	.	.	.	.	.	.	.	.	.	16g\Jk	.
!LO:LB:g=original	!	!	!	!	!	!	!	!	!	!	!
4G\	.	.	.	.	.	8c\	-di-	.	.	8g/	-am
.	.	.	.	.	.	16c\	-e-	.	.	8r	.
.	.	.	.	.	.	16A\	-rit	.	.	.	.
8r	.	.	.	.	.	8B\	Ci-	.	.	4r	.
8E\	6	.	.	.	.	8c#X\	-vi-	.	.	.	.
=5	=5	=5	=5	=5	=5	=5	=5	=5	=5	=5	=5
8D\L	.	00r	00r	0r	.	8d\	-ta-	2re	.	00r	.
16D\L	.	.	.	.	.	8d\	-tem	.	.	.	.
16E\JJ	.	.	.	.	.	.	.	.	.	.	.
8F#\L	.	.	.	.	.	8r	.	.	.	.	.
8D\J	.	.	.	.	.	16A\	fru-	.	.	.	.
.	.	.	.	.	.	16B\	-stra-	.	.	.	.
8r	.	.	.	.	.	8c#\	-a	4d\	Va-	.	.
16G\LL	.	.	.	.	.	8B\	.	.	.	.	.
16A\JJ	.	.	.	.	.	.	.	.	.	.	.
8B\L	.	.	.	.	.	8r	.	8d\	-num	.	.
8G\J	.	.	.	.	.	16d\	fru-	8d\	eſt	.	.
.	.	.	.	.	.	16G/	-stra	.	.	.	.
!	!	!	!	!	!	!LO:PB:g=original	!	!	!	!	!
=6	=6	=6	=6	=6	=6	=6	=6	=6	=6	=6	=6
8c\L	.	.	.	.	.	8e\	Vi-	8e\	Vo-	.	.
8B\	.	.	.	.	.	16e\	-gi-	8e\	-bis	.	.
.	.	.	.	.	.	16d\	-lat	.	.	.	.
8A\	.	.	.	.	.	8c#\	qui	8f#\	an-	.	.
8G\J	.	.	.	.	.	8B\	Cu-	8g\	-te	.	.
8F#\L	.	.	.	.	.	8A/	-ſto-	8a\	lu-	.	.
16G\L	.	.	.	.	.	(16B\LL	-dit	(16g\LL	-cem	.	.
16C\JJ	6 5	.	.	.	.	16A\JJ)	.	16a\JJ)	.	.	.
!LO:TX:a:t=P:problem:mixed beam	!	!	!	!	!	!	!	!	!	!	!
8D\L	5 4	.	.	.	.	4A/	e-	8.f#\	ſur-	.	.
8DD/J	x 3	.	.	.	.	.	.	.	.	.	.
.	.	.	.	.	.	.	.	16g\	-ge-	.	.
=7	=7	=7	=7	=7	=7	=7	=7	=7	=7	=7	=7
!LO:TX:a:t=P:problem:mixed beam	!	!	!	!	!	!	!	!	!	!	!
8GG/L	.	.	.	1r	.	4G/	-am	4g,<\	-re	.	.
8G\	.	.	.	.	.	.	.	.	.	.	.
8F#\	.	.	.	.	.	4r	.	8g\	ſur-	.	.
8D\J	.	.	.	.	.	.	.	16d\	-gi-	.	.
.	.	.	.	.	.	.	.	16d\	-te	.	.
8C/L	.	.	.	.	.	2r	.	16e\LL	ſur-	.	.
.	.	.	.	.	.	.	.	16f#\	.	.	.
8BB/	.	.	.	.	.	.	.	16d\	.	.	.
.	.	.	.	.	.	.	.	16e\JJ	.	.	.
8AA/	.	.	.	.	.	.	.	16f#\LL	.	.	.
.	.	.	.	.	.	.	.	16g\	.	.	.
8D/J	.	.	.	.	.	.	.	16e\	.	.	.
.	.	.	.	.	.	.	.	16f#\JJ	.	.	.
!	!	!	!	!	!	!	!	!LO:LB:g=original	!	!	!
=8	=8	=8	=8	=8-	=8	=8	=8	=8	=8	=8	=8
!LO:TX:a:t=P:problem:mixed beam	!	!	!	!	!	!	!	!	!	!	!
8GG/L	.	.	.	2rG	.	00r	.	8.g\	.	.	.
8G\	.	.	.	.	.	.	.	.	.	.	.
.	.	.	.	.	.	.	.	16g\	-gi-	.	.
8A\	.	.	.	.	.	.	.	8g,<\	-te	.	.
8B\J	#	.	.	.	.	.	.	8f#\	poſt-	.	.
!LO:LB:g=original	!	!	!	!	!	!	!	!	!	!	!
4E\	n	.	.	8r	.	.	.	8e\	-qua(m)	.	.
.	.	.	.	8B\	Cum	.	.	8d#X\	ſe-	.	.
4C/	7	.	.	8.c\	de-	.	.	8.e\	-de-	.	.
.	6	.	.	16c\	-de-	.	.	16f#\	-ri-	.	.
=9	=9	=9	=9	=9	=9	=9	=9	=9	=9	=9	=9
4BB/	#	00r	00r	8B\	-rit	.	.	8d#X,<\	-tis	0r	.
.	.	.	.	8BB/	di-	.	.	8f#\	qui	.	.
8r	.	.	.	8E\	-lec-	.	.	8g\	man-	.	.
8BB/	#	.	.	8D#X/	-tis	.	.	8f#\	-du-	.	.
8E\L	n	.	.	8E\	ſuis	.	.	(16g\LL	-ca-	.	.
.	.	.	.	.	.	.	.	16f#\JJ)	.	.	.
8D#X\	.	.	.	8D#X\	.	.	.	8f#\	-tis	.	.
8E\	.	.	.	8E\	ſom-	.	.	4r	.	.	.
8BB\J	.	.	.	8BB/	-num	.	.	.	.	.	.
=10	=10	=10	=10	=10	=10	=10	=10	=10	=10	=10	=10
*	*	*	*	*	*	*	*	*2\right	*	*	*
8E\L	.	.	.	8r	.	.	.	2b\	pa-	.	.
8F#\	.	.	.	8E\	Ec-	.	.	.	.	.	.
8E\	.	.	.	8E\	-ce	.	.	.	.	.	.
8D\J	.	.	.	8E\	hae-	.	.	.	.	.	.
!LO:TX:a:t=P:problem:mixed beam	!	!	!	!	!	!	!	!	!	!	!
8C/L	.	.	.	8.c\	-re-	.	.	4e\	-nem	.	.
8D/	.	.	.	.	.	.	.	.	.	.	.
.	.	.	.	16c\	-di	.	.	.	.	.	.
!	!	!	!	!LO:PB:g=original	!	!	!	!	!	!	!
8C/	.	.	.	8c\	tas	.	.	8r	.	.	.
8A\J	.	.	.	8A\	hae-	.	.	8a\	pa-	.	.
=11	=11	=11	=11	=11	=11	=11	=11	=11	=11	=11	=11
!LO:TX:a:t=P:problem:mixed beam	!	!	!	!	!	!	!	!	!	!	!
8B\L	#	.	.	8B\	-re-	.	.	8d#X\	-nem	1r	.
!	!	!	!	!	!	!	!	!LO:PB:g=original	!	!	!
8A\	.	.	.	16B\	-di-	.	.	(16e\LL	do-	.	.
.	.	.	.	16A\	-tas	.	.	16f#\JJ)	.	.	.
8B\	x 4	.	.	8B\	Do-	.	.	8.f#t\L	-lo-	.	.
8BB/J	# 3	.	.	16B\	-mi-	.	.	.	.	.	.
.	.	.	.	16B\	-ni	.	.	16e\Jk	.	.	.
4C/	.	.	.	8E\	fi-	.	.	4e\	-ris	.	.
.	.	.	.	16E\	-li-	.	.	.	.	.	.
.	.	.	.	16F#\	-j	.	.	.	.	.	.
8r	.	.	.	8G\	mer-	.	.	4r	.	.	.
8A\	.	.	.	8A\	-ceſ	.	.	.	.	.	.
=12	=12	=12	=12	=12	=12	=12	=12	=12	=12	=12-	=12
8B\L	.	.	.	8B\	fruc-	2r	.	2r	.	2r	.
8c\	.	.	.	8c\	-tus	.	.	.	.	.	.
8A\	.	.	.	8A\L	Ven-	.	.	.	.	.	.
8B\J	#	.	.	8B\J	.	.	.	.	.	.	.
8E\	n	.	.	8E\	-tris	8r	.	8r	.	8r	.
!LO:LB:g=original	!	!	!	!	!	!	!	!	!	!	!
*clefC4	*	*	*	*	*	*	*	*	*	*	*
*k[f#]	*	*	*	*	*	*	*	*	*	*	*
!LO:TX:a:t=P:problem:po kluczu znaki F# f# jeden nad drugim	!	!	!	!	!	!	!	!	!	!	!
8e\L	n	.	.	8r	.	8e\	ſi-	8g\	ſi-	8b\	ſi-
8e\	.	.	.	4r	.	8e\	-cut	(16g\LL	-cut	8b\	-cut
.	.	.	.	.	.	.	.	16a\JJ)	.	.	.
!LO:N:vis=8	!	!	!	!	!	!	!	!	!	!	!
16e\	.	.	.	.	.	8e\	ſa-	(16b\LL	ſa-	8b\	ſa-
!LO:N:vis=8	!	!	!	!	!	!	!	!	!	!	!
16e\Jk	.	.	.	.	.	.	.	16g\JJ)	.	.	.
=13	=13	=13	=13	=13	=13	=13	=13	=13	=13	=13	=13
8e\	4 2	1rb	1r	8B\	ſi-	(8e\L	-git-	4f#\	-git-	(8a\L	-git-
*clefF4	*	*	*	*	*	*	*	*	*	*	*
*k[f#]	*	*	*	*	*	*	*	*	*	*	*
8B\L	n	.	.	8B\	-cut	8d\J)	.	.	.	8b\J)	.
8B\	.	.	.	8B\	ſa-	8d,<\	-tae	8f#\	-tae	8b\	-tae
!	!	!	!	!	!	!	!	!	!	!LO:PB:g=original	!
8B\J	.	.	.	(8B\L	-git-	8d\	ſa-	8f#\	ſa-	8b\	ſa-
8B\L	4_ n2_	.	.	8A\J)	.	4c#\	-git-	(8g\L	-git-	4ee\	-git-
!	!	!	!	!LO:LB:g=original	!	!	!	!	!	!	!
8A\	.	.	.	4A,<\	-te	.	.	8a\J)	.	.	.
8A\	.	.	.	.	.	8c#\	-tae	8a\	-tae	8ee\	-tae
*	*	*	*	*	*	*	*	*	*ij	*	*
8A\J	X X	.	.	8A\	ſa-	8c#\	ſa-	8a\	sa-	8ee\	ſa-
=14	=14	=14-	=14	=14	=14	=14	=14	=14	=14	=14	=14
8A\L	4 2	2ra	8r	(8A\L	-git-	4B\	-git-	4b\	-git-	(8dd#X\L	-git-
.	x #	.	.	.	.	.	.	.	.	.	.
8G\	6	.	8ee\L	8G\J)	.	.	.	.	.	8ee\J)	.
8G\	.	.	8ee\	8G,<\	-tae	8B\	-tae	8b\	-tae	8ee\	-tae
*	*	*	*	*	*	*	*	*	*Xij	*	*
!	!	!	!	!	!	!LO:LB:g=original	!	!	!	!	!
8E\J	n	.	8ee\J	8E\	in	8B\	in	8g\	in	8ee\	in
8A\L	.	8r	8ee\L	(8A\L	ma-	4c\	ma-	4a\	ma-	4ee\	ma-
8B\	.	8a/L	8dd\	8B\J)	.	.	.	.	.	.	.
8c\	.	8a/	8.cc\	8c\	-nu	8c,<\	-nu	8a\	-nu	8ee\	-nu
8A\J	6	8f#/J	.	8A\	po-	8c\	po-	8a\	po-	8ff#\	po-
.	.	.	16cc\Jk	.	.	.	.	.	.	.	.
=15	=15	=15	=15	=15	=15	=15	=15	=15	=15	=15	=15
!	!	!LO:TX:a:t=P:problem:mixed beam	!	!	!	!	!	!	!	!	!
8B\L	#	8f#/L	8dd#X\L	8B\	-ten-	8B\	-ten-	8f#\	-ten-	8dd#X\	-ten-
!	!	!	!	!	!	!	!	!LO:LB:g=original	!	!	!
8B\	.	8f#/	8dd#\	8B,<\	-tis	8B\	-tis	8f#,<\	-tis	8dd#\	-tis
8G\	6	8ee\	8ee\	8G\	i-	8B\	i-	8g\	i-	8ee\	i-
8G\J	.	8ee\J	8ee\J	8G\	-ta	8B\	-ta	8g\	-ta	8ee\	-ta
8.F#\L	7	16ff#\LL	16aa\LL	8.F#\	Fi-	8.c#\	fi-	8.a\	fi-	8.ee\	fi-
.	.	16ee\	16gg\	.	.	.	.	.	.	.	.
.	.	16ff#\	16aa\	.	.	.	.	.	.	.	.
16F#\Jk	6\	16gg\JJ	16bb\JJ	16F#\	-li-	16c#\	-li-	16a\	-li-	16ee\	-li-
4ryy	.	8ff#\L	8aa\L	4F#\	-j	4A/	-j	4a\	-j	4dd#X\	-j
.	.	8ff#\J	8aa\J	.	.	.	.	.	.	.	.
=16	=16	=16	=16	=16	=16	=16	=16	=16	=16	=16	=16
!LO:TX:a:t=P:problem:mixed beam	!	!	!	!	!	!	!	!	!	!	!
8E\L	.	8ee\L	8ee\L	8E\	ex-	8B\	ex-	8g\	ex-	8ee\	ex-
8AA/J	6 5	8cc\J	8ff#\	8AA/	-cuſ-	8c\	-Cus-	8f#\	-cuſ-	(16ff#\LL	-cuſ-
.	.	.	.	.	.	.	.	.	.	16ee\JJ)	.
!LO:TX:a:t=P:problem:mixed beam	!	!	!	!	!	!	!	!	!	!LO:LB:g=original	!
8B\L	4	8.dd#X\L	8.ff#\	8BB/	-so-	4B\	-ſo-	4f#\	-so-	(8ee\L	-so-
.	3	.	.	.	.	.	.	.	.	.	.
8BB/J	#	.	.	8E\	-rum	.	.	.	.	8dd#X\J)	.
.	.	16dd#\Jk	16ee\Jk	.	.	.	.	.	.	.	.
!LO:LB:g=original	!	!	!	!	!	!	!	!	!	!	!
8E\L	n	8ee\L	8ee\L	(16E\LL	be-	8B\	-rum	8g\	-ru(m)	8ee,<\	-rum
.	.	.	.	16F#\JJ)	.	.	.	.	.	.	.
!	!	!	!	!LO:LB:g=original	!	!	!	!	!	!	!
16E\L	.	8ee\	16bb\L	(16G\LL	-a-	8r	.	(16g\LL	be-	8ee\	be-
16F#\JJ	.	.	16aa\JJ	16A\JJ)	.	.	.	16f#\JJ)	.	.	.
!LO:TX:a:t=P:problem:mixed beam	!	!	!	!LO:TX:a:t=P:problem:mixed beam	!	!	!	!	!	!	!
16G\LL	.	8ee\	8gg\L	8B\L	-tus	4r	.	8.e\	-a-	8ee\	-a-
16A\	.	.	.	.	.	.	.	.	.	.	.
16B\	.	8dd#X\J	16ff#\L	8BB/J	.	.	.	.	.	8dd#X\	-tus
16BB/JJ	#	.	16ee\JJ	.	.	.	.	16f#\	-tus	.	.
=17	=17	=17	=17	=17	=17	=17	=17	=17	=17	=17	=17
8E\L	n	8ee\L	8ee\L	8E\	Vir	8r	.	8g\	Vir	8ee\	Vir
*	*	*	*	*	*ij	*	*	*	*	*	*
8B\	n	8dd\J	8ff#\J	8B\	be-	(16B\LL	Be-	8r	.	8ddn\	be-
.	.	.	.	.	.	16c#X\JJ)	.	.	.	.	.
!	!	!	!	!	!	!LO:SIC:s=16d#:v	!	!	!	!	!
8B\	4 #2	8.cc\L	16ee\LL	8B\	-a-	(16d\LL	-a-	4r	.	8.cc#X\	-a-
.	.	.	16gg\	.	.	16e\JJ)	.	.	.	.	.
!	!	!	!	!	!	!LO:TX:a:t=P:problem:mixed beam	!	!	!	!	!
8A#X\J	.	.	16ff#\	8A#X\	-tus	(>16f#\LL	-tus	.	.	.	.
.	.	16cc\Jk	16ee\JJ	.	.	16F#/JJ)	.	.	.	16cc#\	-tus
8B\L	#	8b/L	8dd#X\L	8B,<\	Vir	8B\	Vir	8r	.	8b\	Vir
*	*	*	*	*	*Xij	*	*	*	*	*	*
8G\J	.	8f#/J	16ee\L	8G\	be-	8e\	Be-	(16e\LL	be-	8r	.
.	.	.	16ff#\JJ	.	.	.	.	16f#\JJ)	.	.	.
!	!	!	!LO:LB:g=original	!	!	!	!	!	!	!	!
8.F#\L	7	8.a/L	8.ff#\L	8.F#\	-a-	8e\	-a-	(16g\LL	-a-	4r	.
.	.	.	.	.	.	.	.	16a\JJ)	.	.	.
!	!	!	!	!	!	!	!	!LO:TX:a:t=P:problem:mixed beam	!	!	!
!	!	!	!	!	!	!	!	!LO:N:vis=8	!	!	!
.	.	.	.	.	.	8d#X\	-tus	16b\LL	-tus	.	.
!	!	!	!	!	!	!	!	!LO:N:vis=8	!	!	!
16F#\Jk	6\	16b/Jk	16gg\Jk	16F#\	-tus	.	.	16B/JJ	.	.	.
!	!	!	!	!	!	!LO:LB:g=original	!	!	!	!	!
=18	=18	=18	=18	=18	=18	=18	=18	=18	=18	=18	=18
8E\L	n	8b\L	8gg\L	8E\	Vir	8e,<\	vir	8e\	vir	8r	.
!	!	!	!	!	!	!	!	!LO:LB:g=original	!	!	!
8E\	.	16b\L	16gg\L	16E\	qui	16B\	qui	16g\	qui	16b\	qui im-
.	.	16ee\JJ	16gg\JJ	16E\	im-	16B\	im-	16g\	im-	16ee\	.
!	!	!LO:LB:g=original	!	!	!	!	!	!	!	!	!
8F#\	6 5	8.dd\L	8.ff#\L	8F#\	-ple-	8A/	-ple-	8a\	-ple-	8.dd\	-ple-
!	!	!	!	!	!	!LO:N:vis=8.	!	!	!	!	!
8F#\J	.	.	.	8F#\	-vit	8A/	-vit	8a\	-vit	.	.
.	.	16cc\Jk	16ee\Jk	.	.	.	.	.	.	16cc\	-vit
8G\L	.	8b\L	8dd\L	8G\	de-	8B\	de-	8g\	de-	8b\	de-
8A\	.	8cc\J	8aa\J	8A\	-ſi-	8B\	-si-	8f#\	-ſi-	8cc\	-ſi-
8B\	.	8dd\L	8gg\L	8B\	-de-	8B\	-de-	8g\	-de-	8dd\	-de-
8G\J	.	16dd\L	16gg\L	16G\	-ri-	16B\	-ri-	16g\	-ri-	16dd\	-ri-
.	.	16dd\JJ	16gg\JJ	16G\	-um	16B\	-um	16g\	-um	16dd\	-um
!	!	!	!	!LO:LB:g=original	!	!	!	!	!	!LO:LB:g=original	!
=19	=19	=19	=19	=19	=19	=19	=19	=19	=19	=19	=19
!LO:TX:a:t=P:problem:mixed beam	!	!	!	!	!	!	!	!	!	!	!
8c\L	5	8ee\L	16gg\LL	8c\	ſu-	8c#\	ſu-	8e\	ſu-	8ee\	ſu-
.	.	.	16gg\	.	.	.	.	.	.	.	.
8A\	.	8ee\J	16gg\	16c\	-um	16c#\	-um	16a\	-um	16ee\	-um
.	.	.	16aa\JJ	16A\	ex	16c#\	ex	16a\	ex	16ee\	ex
!	!	!	!	!LO:TX:a:t=P:problem:mixed beam	!	!	!	!	!	!	!
8d\	.	8.dd\L	8.aa\L	(>8d\L	i-	4A\	i-	(8g\L	i-	4dd\	i-
8D/J	4	.	.	8D/J)	-psis	.	.	8f#\J)	.	.	.
.	3	16dd\Jk	16gg\Jk	.	.	.	.	.	.	.	.
!	!	!	!LO:N:vis=8	!	!	!	!	!	!	!	!
8G\	.	8dd\	4gg\	8G\	.	8B,<\	-pſis	8g\	-psis	8dd\	-psis
8r	.	8r	.	8r	.	8B\	non	8g\	non	8r	.
4r	.	16r	16r	4r	.	8B\	Con-	8g\	Con-	4r	.
.	.	16ee\LL	16gg\LL	.	.	.	.	.	.	.	.
.	.	16ee\	16gg\	.	.	8B\	-fun-	8g\	-fun-	.	.
.	.	16b\JJ	16ee\JJ	.	.	.	.	.	.	.	.
=20	=20	=20	=20	=20	=20	=20	=20	=20	=20	=20	=20
8r	.	16dd#X\LL	16ff#\LL	8r	.	(16B\LL	-de-	(16g\LL	-de-	8r	.
.	.	16b\	16dd#X\	.	.	16A\JJ)	.	16f#\JJ)	.	.	.
8BB/L	7_ #_	16b\	16dd#\	8B\	non	8A,</	-tur	8f#\	-tur	8dd#X\	non
.	.	16g\JJ	16b\JJ	.	.	.	.	.	.	.	.
8BB/	.	16dd#X\LL	16ff#\LL	(16B\LL	Con-	8A/	Con-	8f#\	Con-	(16dd#\LL	Con-
.	.	16b\	16dd#X\	16F#\JJ)	.	.	.	.	.	16b\JJ)	.
!	!	!	!	!LO:TX:a:t=P:problem:mixed beam	!	!	!	!	!	!	!
8BB/J	.	16b\	16dd#\	(>16F#\LL	-fun-	8A/	-fun-	8f#\	-fun-	(16b\LL	-fun-
.	.	16g\JJ	16b\JJ	16AA/JJ)	.	.	.	.	.	16f#\JJ)	.
!LO:LB:g=original	!	!	!	!	!	!	!	!LO:LB:g=original	!	!	!
8BB/L	7 #	8f#/L	8g/L	8BB/	-de-	8A/	-de-	8f#\	-da-	(16dd#X\LL	-de-
.	.	.	.	.	.	.	.	.	.	16b\JJ)	.
!	!	!	!	!	!	!LO:LB:g=original	!	!	!	!	!
8BB/J	.	8f#/J	8g/J	8BB/	-tur	8A/	-tur	8f#\	-tur	(16b\LL	-tur
.	.	.	.	.	.	.	.	.	.	16f#\JJ)	.
8r	.	8r	8r	8r	.	8r	.	8r	.	8r	.
16B\LL	#	16dd#X\LL	16ff#\LL	16B\	Cum	16B\	Cum	16f#\	Cum	16dd#X\	Cum
16A\JJ	.	16dd#\JJ	16ff#\JJ	16A\	lo-	16B\	lo-	16f#\	lo-	16dd#\	lo-
=21	=21	=21	=21	=21	=21	=21	=21	=21	=21	=21	=21
8G\L	6	8ee\L	8ee\L	8G\	-que-	8B\	-que-	8g\	-que-	8ee\	-que-
8F#\	6\	8dd#X\	8ff#\	8F#\	-tur	8A/	-tur	8a\	-tur	8dd#X\	-tur
8G\	6	8ee\	8ee\	8G\	i-	8B\	i-	8g\	i-	8ee\	i-
8E\J	.	8ee\J	8gg\J	8E\	-ni-	8B\	-ni-	8g\	-ni-	8ee\	-ni-
8A\L	7_ 3_	8ee\L	8aa\L	8A\	-mi-	8c\	-mi-	8e\	-mi-	8ee\	-mi-
8G\	6	8ee\J	8aa\	8G\	-cis	8c\	-cis	8e\	-cis	8ee\	-cis
!	!	!	!	!	!	!	!	!	!	!LO:LB:g=original	!
8F#\	.	8.dd#X\L	8aa\	(8F#\L	ſu-	(8A/L	ſu-	(8f#\L	ſu-	8dd#X\L	su-
8E\J	.	.	8gg\J	8E\J)	.	8B/J)	.	8g\J)	.	8ee\J	.
.	.	16ee\Jk	.	.	.	.	.	.	.	.	.
!	!	!LO:PB:g=original	!	!	!	!	!	!	!	!	!
=22	=22	=22	=22	=22	=22	=22	=22	=22	=22	=22	=22
!LO:TX:a:t=P:problem:mixed beam	!	!	!	!LO:TX:a:t=P:problem:# above	!	!	!	!	!	!	!
8D\L	.	8ff#\L	8ff#\L	8D#X\	-is	8B\	-is	4a\	-is	8ff#\	-is
!	!	!	!	!LO:LB:g=original	!	!	!	!	!	!	!
8E\	.	8ee\J	16gg\L	8E\	in	8B\	-in	.	.	16gg\LL	in
.	.	.	16ff#\JJ	.	.	.	.	.	.	16ff#\JJ	.
8B\	.	8.dd#X\L	8.ff#\L	4BB/	por-	4B\	por-	16g\LL	in	(8ee\L	por-
.	.	.	.	.	.	.	.	16f#\JJ	.	.	.
8BB/J	4	.	.	.	.	.	.	8f#\	-por-	8dd#X\J)	.
.	#3r	16ee\Jk	16ee\Jk	.	.	.	.	.	.	.	.
!	!	!	!LO:LB:g=original	!	!	!	!	!	!	!	!
*	*	*	*k[f#c#]	*	*	*	*	*	*	*	*
*2\right	*	*2\right	*2\right	*2\right	*	*2\right	*	*	*	*2\right	*
!	!	!	!LO:TX:a:t=P:problem:krzyżyki f# cc# ff# jeden nad drugim	!	!	!	!	!	!	!	!
!	!	!LO:TX:a:t=P:problem:podwójna kreska taktowa	!	!	!	!LO:TX:a:t=P:problem:podwójna kreska taktowa	!	!	!	!	!
2E\	.	2ee\	2ee\	2E\	-ta	2B\	-ta	2g\	-ta	2ee\	-ta
=23	=23	=23	=23	=23	=23	=23	=23	=23-	=23	=23	=23
*k[]	*	*k[cnfn]	*k[cnfn]]	*	*	*	*	*	*	*	*
!LO:TX:b:t=Gloria Solo	!	!	!LO:TX:a:t=P:problem:mixed beam	!	!	!	!	!	!	!	!
!LO:TX:a:t=Vivace	!	!LO:TX:a:t=P:problem:mixed beam	!	!	!	!	!	!	!	!	!
4r	.	8cc\L	8cc\L	0r	.	00r	.	00r	.	00r	.
.	.	8c/J	8c/J	.	.	.	.	.	.	.	.
!LO:TX:a:t=P:problem:mixed beam	!	!	!	!	!	!	!	!	!	!	!
8c\L	.	16r	16r	.	.	.	.	.	.	.	.
.	.	16gg\LL	16gg\LL	.	.	.	.	.	.	.	.
8C/J	.	16ff\	16ff\	.	.	.	.	.	.	.	.
.	.	16ee\JJ	16ee\JJ	.	.	.	.	.	.	.	.
!LO:TX:a:t=P:problem:mixed beam	!	!LO:TX:a:t=P:problem:mixed beam	!LO:TX:a:t=P:problem:mixed beam	!	!	!	!	!	!	!	!
8F\L	.	16aa\LL	16aa\LL	.	.	.	.	.	.	.	.
.	.	16f/	16f/	.	.	.	.	.	.	.	.
8FF/J	.	16f/	16f/	.	.	.	.	.	.	.	.
.	.	16e/JJ	16f/JJ	.	.	.	.	.	.	.	.
!	!	!LO:TX:a:t=P:problem:mixed beam	!LO:TX:a:t=P:problem:mixed beam	!	!	!	!	!	!	!	!
8r	.	16f/LL	16f/LL	.	.	.	.	.	.	.	.
.	.	16aa\	16aa\	.	.	.	.	.	.	.	.
8F\	.	16gg\	16gg\	.	.	.	.	.	.	.	.
.	.	16ff\JJ	16ff\JJ	.	.	.	.	.	.	.	.
=24	=24	=24	=24	=24	=24	=24	=24	=24	=24	=24	=24
!	!	!LO:TX:a:t=P:problem:mixed beam	!LO:TX:a:t=P:problem:mixed beam	!	!	!	!	!	!	!	!
8E\L	.	16gg\LL	16gg\LL	.	.	.	.	.	.	.	.
.	.	16e/	16e/	.	.	.	.	.	.	.	.
8D\	.	16e/	16e/	.	.	.	.	.	.	.	.
.	.	16e/JJ	16e/JJ	.	.	.	.	.	.	.	.
!	!	!LO:TX:a:t=P:problem:mixed beam	!LO:TX:a:t=P:problem:mixed beam	!	!	!	!	!	!	!	!
8E\	.	16e/LL	16e/LL	.	.	.	.	.	.	.	.
.	.	16gg\	16gg\	.	.	.	.	.	.	.	.
8C\J	.	16ff\	16ff\	.	.	.	.	.	.	.	.
.	.	16ee\JJ	16ee\JJ	.	.	.	.	.	.	.	.
!LO:TX:a:t=P:problem:mixed beam	!	!LO:TX:a:t=P:problem:mixed beam	!LO:TX:a:t=P:problem:mixed beam	!	!	!	!	!	!	!	!
8D\L	.	16ff\LL	16ff\LL	.	.	.	.	.	.	.	.
.	.	16d/	16d/	.	.	.	.	.	.	.	.
8DD/J	.	16d/	16d/	.	.	.	.	.	.	.	.
.	.	16d/JJ	16d/JJ	.	.	.	.	.	.	.	.
!	!	!LO:TX:a:t=P:problem:mixed beam	!LO:TX:a:t=P:problem:mixed beam	!	!	!	!	!	!	!	!
8r	.	16d/LL	16d/LL	.	.	.	.	.	.	.	.
.	.	16ff\	16ff\	.	.	.	.	.	.	.	.
8GG/	.	16ee\	16ee\	.	.	.	.	.	.	.	.
.	.	16dd\JJ	16dd\JJ	.	.	.	.	.	.	.	.
!LO:LB:g=original	!	!	!	!	!	!	!	!	!	!	!
=25	=25	=25	=25	=25	=25	=25	=25	=25	=25	=25	=25
!	!	!LO:TX:a:t=P:problem:mixed beam	!LO:TX:a:t=P:problem:mixed beam	!	!	!	!	!	!	!	!
8C\L	.	16ee\LL	16ee\LL	1rD	.	.	.	.	.	.	.
.	.	16c/	16c/	.	.	.	.	.	.	.	.
8D\	.	16c/	16c/	.	.	.	.	.	.	.	.
.	.	16c/JJ	16c/JJ	.	.	.	.	.	.	.	.
!	!	!LO:TX:a:t=P:problem:mixed beam	!LO:TX:a:t=P:problem:mixed beam	!	!	!	!	!	!	!	!
8E\	.	16c/LL	16c/LL	.	.	.	.	.	.	.	.
.	.	16ee\	16ee\	.	.	.	.	.	.	.	.
8F\J	.	16dd\	16dd\	.	.	.	.	.	.	.	.
.	.	16cc\JJ	16cc\JJ	.	.	.	.	.	.	.	.
!	!	!LO:LB:g=original	!	!	!	!	!	!	!	!	!
*	*	*k[f#]	*	*	*	*	*	*	*	*	*
8G\L	.	16b\LL	16b\LL	.	.	.	.	.	.	.	.
.	.	16cc\	16cc\	.	.	.	.	.	.	.	.
8F\	.	16b\	16b\	.	.	.	.	.	.	.	.
.	.	16a\JJ	16a\JJ	.	.	.	.	.	.	.	.
8E\	.	16g/LL	16g/LL	.	.	.	.	.	.	.	.
.	.	16a/	16a/	.	.	.	.	.	.	.	.
8D\J	.	16g/	16g/	.	.	.	.	.	.	.	.
.	.	16f#/JJ	16f/JJ	.	.	.	.	.	.	.	.
=26	=26	=26	=26	=26-	=26	=26	=26	=26	=26	=26	=26
!LO:TX:a:t=P:problem:mixed beam	!	!LO:TX:a:t=P:problem:mixed beam x 3	!LO:TX:a:t=P:problem:mixed beam x 3	!	!	!	!	!	!	!	!
8C\L	.	8e/L	8e/L	2rC	.	.	.	.	.	.	.
8F\	.	8cc\J	8cc\J	.	.	.	.	.	.	.	.
!	!	!	!LO:LB:g=original	!	!	!	!	!	!	!	!
!	!	!LO:TX:a:t=P:problem:mixed beam	!LO:TX:a:t=P:problem:mixed beam	!	!	!	!	!	!	!	!
8G\	.	8G/L	8G/L	.	.	.	.	.	.	.	.
8GG/J	.	8b\J	8b\J	.	.	.	.	.	.	.	.
!	!	!LO:TX:a:t=P:problem:mixed beam	!LO:TX:a:t=P:problem:mixed beam	!	!	!	!	!	!	!	!
4C/	.	8cc\L	8cc\L	16r	.	.	.	.	.	.	.
.	.	.	.	16C/LL	Glo-	.	.	.	.	.	.
.	.	8c/J	8c/J	16E/	.	.	.	.	.	.	.
.	.	.	.	16G/JJ	.	.	.	.	.	.	.
4r	.	4r	4r	16E\LL	.	.	.	.	.	.	.
.	.	.	.	16C\	.	.	.	.	.	.	.
.	.	.	.	16E\	.	.	.	.	.	.	.
.	.	.	.	16G\JJ	.	.	.	.	.	.	.
=27	=27	=27	=27	=27	=27	=27	=27	=27	=27	=27	=27
4C/	.	2ra	16r	8c\	.	0r	.	0r	.	0r	.
.	.	.	16c/LL	.	.	.	.	.	.	.	.
.	.	.	16e/	16c\	-ri-	.	.	.	.	.	.
.	.	.	16g/JJ	16c,<\	-a	.	.	.	.	.	.
*	*	*	*	*	*ij	*	*	*	*	*	*
8r	.	.	16e/LL	8B\	Glo-	.	.	.	.	.	.
.	.	.	16c/	.	.	.	.	.	.	.	.
8C/	-7	.	16e/	16B\	-ri-	.	.	.	.	.	.
.	.	.	16g/JJ	16B\	-a	.	.	.	.	.	.
*	*	*	*	*	*Xij	*	*	*	*	*	*
4F\	.	16r	16a/LL	8A\	Pa-	.	.	.	.	.	.
.	.	16c/LL	16f/	.	.	.	.	.	.	.	.
.	.	16e/	16a/	8A\	-tri	.	.	.	.	.	.
.	.	16g/JJ	16cc/JJ	.	.	.	.	.	.	.	.
4r	.	16f#/LL	16a/LL	4r	.	.	.	.	.	.	.
.	.	16c/	16f/	.	.	.	.	.	.	.	.
.	.	16f#/	16a/	.	.	.	.	.	.	.	.
.	.	16a/JJ	16cc/JJ	.	.	.	.	.	.	.	.
=28	=28	=28	=28	=28	=28	=28	=28	=28	=28	=28	=28
!	!	!LO:TX:a:t=P:problem:mixed beam	!LO:TX:a:t=P:problem:mixed beam	!	!	!	!	!	!	!	!
4FF/	.	8cc\L	8ff\L	16r	.	.	.	.	.	.	.
.	.	.	.	16Fn\LL	glo-	.	.	.	.	.	.
.	.	8f#/J	8f/J	16A\	.	.	.	.	.	.	.
.	.	.	.	16c\JJ	.	.	.	.	.	.	.
8r	.	4r	4r	16A\LL	.	.	.	.	.	.	.
.	.	.	.	16F\	.	.	.	.	.	.	.
8F\	.	.	.	16A\	.	.	.	.	.	.	.
.	.	.	.	16c\JJ	.	.	.	.	.	.	.
!	!	!	!	!LO:LB:g=original	!	!	!	!	!	!	!
4D\	n	2ra	16r	8d\	.	.	.	.	.	.	.
.	.	.	16d/LL	.	.	.	.	.	.	.	.
!	!	!	!	!	!	!	!	!	!	!	!
.	.	.	16f/	16d\	-ri-	.	.	.	.	.	.
.	.	.	16a/JJ	16d\	-a	.	.	.	.	.	.
8r	.	.	16f#X/LL	8c\	Fi-	.	.	.	.	.	.
.	.	.	16d/	.	.	.	.	.	.	.	.
8D\	7 #	.	16f#/	16c\	-li-	.	.	.	.	.	.
.	.	.	16a/JJ	16c\	-o	.	.	.	.	.	.
=29	=29	=29	=29	=29	=29	=29	=29	=29	=29	=29	=29
4G\	.	16r	16b/LL	8B\	et	1r	.	1r	.	1r	.
.	.	16d/LL	16g/	.	.	.	.	.	.	.	.
.	.	16g/	16b/	8G\	ſpi-	.	.	.	.	.	.
.	.	16b/JJ	16dd/JJ	.	.	.	.	.	.	.	.
4r	.	16f#/LL	16b/LL	8D/	-ri-	.	.	.	.	.	.
.	.	16d/	16g/	.	.	.	.	.	.	.	.
.	.	16f#/	16b/	16BB/	-tu-	.	.	.	.	.	.
.	.	16b/JJ	16dd/JJ	16BB/	-i	.	.	.	.	.	.
!	!	!	!LO:TX:a:t=P:problem:mixed beam	!	!	!	!	!	!	!	!
4GG;</	.	8b/L	8gg\L	8GG/	ſan-	.	.	.	.	.	.
.	.	8g/J	8g/J	8GG/	-cto	.	.	.	.	.	.
4r	.	4r	4r	4r	.	.	.	.	.	.	.
!LO:LB:g=original	!	!	!	!	!	!	!	!	!	!	!
=30	=30	=30	=30	=30	=30	=30	=30	=30	=30	=30-	=30
*k[f#]	*	*	*	*	*	*	*	*	*	*	*
2.E\	n	1r	1r	1rA	.	1r	.	1ra	.	4.e/	ſi-
.	.	.	.	.	.	.	.	.	.	8e/	-cut
.	4 2	.	.	.	.	.	.	.	.	8a\	e-
.	.	.	.	.	.	.	.	.	.	8a\	-rat
4D#X\	6 5	.	.	.	.	.	.	.	.	8a\	in
.	.	.	.	.	.	.	.	.	.	8b\	prin-
!	!	!	!LO:LB:g=original	!	!	!	!	!	!	!	!
=31	=31	=31-	=31-	=31-	=31	=31-	=31	=31-	=31	=31	=31
*k[f#]	*	*	*k[f#c#]	*	*	*	*	*	*	*	*
!	!	!	!LO:TX:a:t=P:problem:krzyżyki f# cc# ff#	!	!	!	!	!	!	!	!
4E\	n	4r	4r	4r	.	4r	.	4r	.	(16b\LL	-ci-
.	.	.	.	.	.	.	.	.	.	16a\JJ)	.
.	.	.	.	.	.	.	.	.	.	(16g\LL	-pi-
.	.	.	.	.	.	.	.	.	.	16f#\JJ)	.
!LO:TX:a:t=Tutti	!	!	!	!	!	!	!	!	!	!	!
8E\L	.	8b/L	8ee\L	8E\	ſi-	8B\	ſi-	8g\	Si-	8e/	-o
8E\J	.	8b/J	8ee\J	8E\	-cut	8e\	-cut	8g\	-cut	8r	.
!	!	!LO:LB:g=original	!	!	!	!	!	!LO:LB:g=original	!	!	!
8A\L	5	8cc\L	8ee\L	8A\	e-	8e\	e-	8f#\	e-	2rf	.
8A\	6	8cc\	8ee\	8A\	-rat	8f#\	-rat	8f#\	-rat	.	.
8B\	#	8b\	8dd#X\	8B\	in	8d#X\	in	8f#\	in	.	.
8B\J	.	8b\J	8dd#\J	8B\	prin-	8d#\	prin-	8f#\	prin-	.	.
!	!	!	!	!	!	!LO:LB:g=original	!	!	!	!	!
=32	=32	=32	=32	=32	=32	=32	=32	=32	=32	=32	=32
!	!	!	!	!	!	!	!	!	!	!	!
16B\LL	#_	8.b/L	8.dd\L	16B\LL	-ci-	8d\	-ci-	8f#\	-ci-	8r	.
16A\	.	.	.	16A\JJ	.	.	.	.	.	.	.
16G\	.	.	.	16G\LL	-pi-	16d\	-pi-	16f#\	-pi-	4b\	ſi-
!	!	!	!	!	!	!	!	!	!	!	!
16F#\JJ	.	16b/Jk	16dd\Jk	16F#\JJ	.	16d\	-o	16f#\	-o	.	.
*	*	*	*	*	*	*	*ij	*	*ij	*	*
8E\	X	8b/	8ee\	8E\	-o	8B\	si-	8g\	si-	.	.
*clefC4	*	*	*	*	*	*	*	*	*	*	*
*k[f#]	*	*	*	*	*	*	*	*	*	*	*
!LO:TX:a:t=P:problem:po kluczu znaki F# f# jeden nad drugim	!	!	!	!	!	!	!	!	!	!	!
8B\	n	8r	8r	8r	.	8B\	-cut	8d\	-cut	8b\	-cut
!	!	!	!	!LO:LB:g=original	!	!	!	!	!	!	!
8B\L	4 2	2ra	2rdd	2r	.	8B\	e-	8c#X/	e-	8ee\	e-
.	x #	.	.	.	.	.	.	.	.	.	.
8B\	.	.	.	.	.	8B\	-rat	8c#/	-rat	8ee\	-rat
!	!	!	!	!	!	!	!	!	!	!LO:LB:g=original	!
*	*	*	*	*	*	*	*	*	*	*	*ij
8A#X\	6 5 #3	.	.	.	.	8A#X/	in	8c#/	in	8ee\	in
8A#\J	.	.	.	.	.	8A#/	prin-	8c#/	prin-	8ff#\	prin-
=33	=33	=33	=33	=33	=33	=33	=33	=33	=33	=33	=33
8.B\L	n	4r	8r	4r	.	8.B\	-ci-	8.d\	-ci-	(16ff#\LL	-ci-
.	.	.	.	.	.	.	.	.	.	16ee\JJ)	.
.	.	.	8r	.	.	.	.	.	.	(16dd\LL	-pi-
16B\Jk	.	.	.	.	.	16B\	-pi-	16d\	-pi-	16cc#X\JJ)	.
8B\	.	8r	8r	8r	.	8B,<\	-o	8d,<\	-o	8b,<\	-o
*	*	*	*	*	*	*	*Xij	*	*Xij	*	*Xij
!LO:LB:g=original	!	!	!	!	!	!	!	!	!	!	!
*clefF4	*	*	*	*	*	*	*	*	*	*	*
*k[f#]	*	*	*	*	*	*	*	*	*	*	*
8E\	.	8ee\	16gg\LL	8E\	et nunc	8B\	et	8e\	'et	8b\	et
.	.	.	16ff#\JJ	.	.	.	.	.	.	.	.
8G\L	6	8ee\L	8gg\L	8G\	.	4.B\	nunc	8e\	nunc	8ee\	nunc
8E\J	.	8ee\J	8gg\J	8E\	et	.	.	8e\	et	8ee\	et
4C/	7	8ee\L	8gg\L	4C/	ſem-	.	.	(8g\L	ſem-	8ee\L	ſem=
.	6	16ff#\L	16aa\L	.	.	(16B\LL	et	8a\J)	.	16ff#\L	.
.	.	16ee\JJ	16gg\JJ	.	.	16A\JJ)	.	.	.	16ee\JJ	.
!	!	!	!	!	!	!	!	!LO:LB:g=original	!	!	!
=34	=34	=34	=34	=34	=34	=34	=34	=34	=34	=34	=34
!LO:TX:a:t=P:problem:mixed beam	!	!	!	!	!	!	!	!	!	!	!
8BB/L	.	8dd#X\L	8ff#\L	8BB/	-per	8B\	ſem-	8f#\	-per	8dd#X\	-per
16B\L	.	16dd#\L	16ff#\L	16B\	et	16B\	-per	16f#\	et	16dd#\	et
16A\JJ	.	16dd#\JJ	16dd#X\JJ	16A\	in	16B\	et	16f#\	in	16dd#\	in
8G\L	6	8ee\L	8gg\L	8G\	ſae-	8B\	iſn	8g\	ſae-	8ee\	ſae-
8E\J	.	16ee\L	16gg\L	16F#\	-cu-	16B\	ſae-	16g\	-cu-	16ee\	-cu-
.	.	16ee\JJ	16gg\JJ	16E\	-la	16B\	-cula	16g\	-la	16ee\	-la
!	!	!	!	!	!	!LO:LB:g=original	!	!	!	!	!
8A\L	.	8ee\L	8aa\L	8A\	ſae-	8c\	ſae-	8e\	ſae-	8ee\	ſae-
8A\J	.	8ee\	8aa\	8A\	-cu-	8c\	-cu-	8e\	-cu-	8ee\	-cu-
8A#X\L	6 5	8ee\	8ff#\	8A#X\	-lo-	8c\	-lo-	8f#\	-lo-	8ee\	-lo-
8A#\J	.	8ee\J	8ff#\J	8A#\	-ru(m)	8c\	-rum	8f#\	-rum	8ee\	-ru(m)
=35	=35	=35	=35	=35	=35	=35	=35	=35	=35	=35	=35
8B\L	#	8dd#X\L	8ff#\L	8B\	a-	8B\	A-	8f#\	a-	8dd#X\	A-
8G\	6	8ee\	8bb\	8G\	-men	8B\	-men	8g\	-men	8ee\	-men
*	*	*	*	*	*	*	*ij	*	*ij	*	*
8A\	6 5	8ee\	8aa\	(8A\L	A-	(8c#\L	A-	4f#\	a-	8ee\L	A-
!	!	!LO:TX:a:t=P:problem:# above	!	!	!	!	!	!	!	!	!
8B\J	#	8dd#X\J	8ff#\J	8B\J)	.	8B\J)	.	.	.	8dd#X\J	.
8E\L	.	8ee\L	8gg\L	8E\	-men	8B\	-men	4g\	-men	4ee\	-men
*	*	*	*	*	*	*	*Xij	*	*Xij	*	*
8C\J	.	8ee\	8aa\	8C/L	A-	4c#\	A-	.	.	.	.
8AA/L	.	8ee\	8aa\	8AA/	.	.	.	4f#\	A-	8r	.
8BB/J	#	8dd#X\J	8gg\J	8BB/J	.	8B\	.	.	.	8dd#\	A-
=36	=36	=36	=36	=36	=36	=36	=36	=36	=36	=36-	=36
!	!	!	!LO:N:vis=1.	!	!	!	!	!LO:SIC:s=1gg#:v	!	!	!
1EE;	#	1ee;;	1gg#X	1E;	-men	1B;	-men	1g	-men	1ee	-men
==	==	==	==	==	==	==	==	==	==	==	==
*-	*-	*-	*-	*-	*-	*-	*-	*-	*-	*-	*-
!!!system-decoration: [g1][g2]s7
!!!RDF**kern: > = above
!!!RDF**kern: < = below
!!!ENC: Marta Lawrence
!!!END: 2020-11-07
!!!ENC: Andrzej Gręziak
!!!END: 2020-05-05
